img/arrow-rev.svg

<svg width="24" height="16" viewBox="0 0 24 16" fill="none" xmlns="http://www.w3.org/2000/svg">
<path fill-rule="evenodd" clip-rule="evenodd" d="M0.35008 7.23482L7.48499 0.315473C7.92034 -0.106574 8.62631 -0.106574 9.06166 0.315473C9.49711 0.738052 9.49711 1.42245 9.06166 1.8445L3.82987 6.91814H22.8851C23.5008 6.91814 24 7.40202 24 7.99934C24 8.59611 23.5008 9.08051 22.8851 9.08051H3.82987L9.06155 14.1542C9.49687 14.5757 9.49687 15.2606 9.06155 15.6827C8.84377 15.8934 8.55846 15.9988 8.27315 15.9988C7.98787 15.9988 7.70256 15.8934 7.48488 15.6827L0.35008 8.76331C-0.085376 8.34181 -0.085376 7.65686 0.35008 7.23482Z" fill="#BBC7D7"/>
</svg>

<svg width="24" height="16" fill="none" xmlns="http://www.w3.org/2000/svg"><path fill-rule="evenodd" clip-rule="evenodd" d="M.35 7.235 7.485.315a1.14 1.14 0 0 1 1.577 0 1.058 1.058 0 0 1 0 1.53L3.83 6.918h19.055C23.501 6.918 24 7.402 24 8s-.5 1.082-1.115 1.082H3.83l5.232 5.073a1.058 1.058 0 0 1 0 1.529 1.13 1.13 0 0 1-.789.316 1.13 1.13 0 0 1-.788-.316L.35 8.763a1.057 1.057 0 0 1 0-1.528Z" fill="#BBC7D7"/></svg>
